public/emoji/1f476.svg

<?xml version="1.0" encoding="UTF-8" standalone="no"?><svg xmlns:dc="http://purl.org/dc/elements/1.1/" xmlns:cc="http://creativecommons.org/ns#" xmlns:rdf="http://www.w3.org/1999/02/22-rdf-syntax-ns#" xmlns:svg="http://www.w3.org/2000/svg" xmlns="http://www.w3.org/2000/svg" viewBox="0 0 45 45" style="enable-background:new 0 0 45 45;" xml:space="preserve" version="1.1" id="svg2"><metadata id="metadata8"><rdf:RDF><cc:Work rdf:about=""><dc:format>image/svg+xml</dc:format><dc:type rdf:resource="http://purl.org/dc/dcmitype/StillImage"/></cc:Work></rdf:RDF></metadata><defs id="defs6"><clipPath id="clipPath16" clipPathUnits="userSpaceOnUse"><path id="path18" d="M 0,36 36,36 36,0 0,0 0,36 Z"/></clipPath></defs><g transform="matrix(1.25,0,0,-1.25,0,45)" id="g10"><g id="g12"><g clip-path="url(#clipPath16)" id="g14"><g transform="translate(36,17.5)" id="g20"><path id="path22" style="fill:#ffdc5d;fill-opacity:1;fill-rule:nonzero;stroke:none" d="M 0,0 C 0,1.639 -0.97,3.004 -2.273,3.385 -3.633,10.842 -10.15,16.5 -18,16.5 -25.85,16.5 -32.367,10.842 -33.727,3.385 -35.03,3.004 -36,1.639 -36,0 c 0,-1.736 1.087,-3.168 2.51,-3.442 1.759,-6.926 8.017,-12.058 15.49,-12.058 7.473,0 13.731,5.132 15.49,12.058 C -1.088,-3.168 0,-1.736 0,0"/></g><g transform="translate(18,11)" id="g24"><path id="path26" style="fill:#662214;fill-opacity:1;fill-rule:nonzero;stroke:none" d="m 0,0 c -3,0 -4,1 -4,-1 0,-2 2,-4 4,-4 2,0 4,2 4,4 0,2 -1,1 -4,1"/></g><g transform="translate(25,17.5)" id="g28"><path id="path30" style="fill:#662214;fill-opacity:1;fill-rule:nonzero;stroke:none" d="M 0,0 C 0,-1.381 -1.12,-2.5 -2.5,-2.5 -3.88,-2.5 -5,-1.381 -5,0 -5,1.381 -3.88,2.5 -2.5,2.5 -1.12,2.5 0,1.381 0,0"/></g><g transform="translate(16,17.5)" id="g32"><path id="path34" style="fill:#662214;fill-opacity:1;fill-rule:nonzero;stroke:none" d="M 0,0 C 0,-1.381 -1.12,-2.5 -2.5,-2.5 -3.88,-2.5 -5,-1.381 -5,0 -5,1.381 -3.88,2.5 -2.5,2.5 -1.12,2.5 0,1.381 0,0"/></g><g transform="translate(18,10)" id="g36"><path id="path38" style="fill:#ffffff;fill-opacity:1;fill-rule:nonzero;stroke:none" d="M 0,0 2,0 2,-1 C 2,-1 2,-2 1,-2 0,-2 0,-1 0,-1 L 0,0 Z"/></g><g transform="translate(17.9819,25)" id="g40"><path id="path42" style="fill:#ef9645;fill-opacity:1;fill-rule:nonzero;stroke:none" d="m 0,0 -0.031,0 c -1.188,0 -2.301,0.458 -3.135,1.304 -0.746,0.756 -1.138,1.787 -1.076,2.847 0.032,0.552 0.491,0.961 1.057,0.935 0.551,-0.032 0.972,-0.507 0.939,-1.059 -0.028,-0.495 0.155,-0.983 0.504,-1.337 0.459,-0.465 1.071,-0.724 1.725,-0.729 0.653,0.036 1.27,0.247 1.735,0.706 1.298,1.28 1.313,3.377 0.033,4.676 -1.699,1.721 -4.48,1.74 -6.203,0.042 -0.394,-0.388 -1.027,-0.383 -1.414,0.01 -0.387,0.393 -0.383,1.026 0.01,1.414 2.506,2.472 6.557,2.444 9.03,-0.061 C 5.229,6.664 5.206,3.316 3.123,1.262 2.285,0.435 1.176,0 0,0"/></g></g></g></g></svg>

<?xml version="1.0" encoding="UTF-8" standalone="no"?><svg xmlns:svg="http://www.w3.org/2000/svg" xmlns="http://www.w3.org/2000/svg" version="1.1" viewBox="0 0 47.5 47.5" style="enable-background:new 0 0 47.5 47.5;" id="svg2" xml:space="preserve"><defs id="defs6"><clipPath id="clipPath18"><path d="M 0,38 38,38 38,0 0,0 0,38 z" id="path20"/></clipPath></defs><g transform="matrix(1.25,0,0,-1.25,0,47.5)" id="g12"><g id="g14"><g clip-path="url(#clipPath18)" id="g16"><g transform="translate(37,18.5)" id="g22"><path d="M 0,0 C 0,1.639 -0.97,3.004 -2.273,3.385 -3.633,10.842 -10.15,16.5 -18,16.5 -25.85,16.5 -32.367,10.842 -33.727,3.385 -35.03,3.004 -36,1.639 -36,0 c 0,-1.736 1.087,-3.168 2.51,-3.442 1.759,-6.926 8.017,-12.058 15.49,-12.058 7.473,0 13.731,5.132 15.49,12.058 C -1.088,-3.168 0,-1.736 0,0" id="path24" style="fill:#d99e82;fill-opacity:1;fill-rule:nonzero;stroke:none"/></g><g transform="translate(19,12)" id="g26"><path d="m 0,0 c -3,0 -4,1 -4,-1 0,-2 2,-4 4,-4 2,0 4,2 4,4 0,2 -1,1 -4,1" id="path28" style="fill:#662214;fill-opacity:1;fill-rule:nonzero;stroke:none"/></g><g transform="translate(26,18.5)" id="g30"><path d="M 0,0 C 0,-1.381 -1.12,-2.5 -2.5,-2.5 -3.88,-2.5 -5,-1.381 -5,0 -5,1.381 -3.88,2.5 -2.5,2.5 -1.12,2.5 0,1.381 0,0" id="path32" style="fill:#662214;fill-opacity:1;fill-rule:nonzero;stroke:none"/></g><g transform="translate(17,18.5)" id="g34"><path d="M 0,0 C 0,-1.381 -1.12,-2.5 -2.5,-2.5 -3.88,-2.5 -5,-1.381 -5,0 -5,1.381 -3.88,2.5 -2.5,2.5 -1.12,2.5 0,1.381 0,0" id="path36" style="fill:#662214;fill-opacity:1;fill-rule:nonzero;stroke:none"/></g><g transform="translate(19,11)" id="g38"><path d="M 0,0 2,0 2,-1 C 2,-1 2,-2 1,-2 0,-2 0,-1 0,-1 L 0,0 z" id="path40" style="fill:#ffffff;fill-opacity:1;fill-rule:nonzero;stroke:none"/></g><g transform="translate(18.9819,26)" id="g42"><path d="M 0,0 -0.031,0 C -1.219,0 -2.332,0.458 -3.166,1.304 -3.912,2.06 -4.304,3.091 -4.242,4.151 -4.21,4.703 -3.751,5.112 -3.185,5.086 -2.634,5.054 -2.213,4.579 -2.246,4.027 -2.274,3.532 -2.091,3.044 -1.742,2.69 -1.283,2.225 -0.671,1.966 -0.017,1.961 0.636,1.997 1.252,2.208 1.718,2.667 3.016,3.947 3.031,6.044 1.75,7.343 0.052,9.064 -2.729,9.083 -4.452,7.385 -4.846,6.997 -5.479,7.002 -5.866,7.395 -6.253,7.788 -6.249,8.421 -5.856,8.809 -3.35,11.281 0.701,11.253 3.174,8.748 5.229,6.664 5.206,3.316 3.123,1.262 2.285,0.435 1.176,0 0,0" id="path44" style="fill:#662214;fill-opacity:1;fill-rule:nonzero;stroke:none"/></g></g></g></g></svg>
